images/indikatorenset/4145.svg

<?xml version="1.0" standalone="no"?><!DOCTYPE svg PUBLIC "-//W3C//DTD SVG 1.1//EN" "http://www.w3.org/Graphics/SVG/1.1/DTD/svg11.dtd"><svg xmlns:xlink="http://www.w3.org/1999/xlink" version="1.1" class="highcharts-root" style="font-family:Arial;font-size:12px;" xmlns="http://www.w3.org/2000/svg" viewBox="0 0 485 415"><desc>Created with Highstock 5.0.7</desc><defs><clipPath id="highcharts-ckj4bt1-1"><rect x="0" y="0" width="428" height="308" fill="none"></rect></clipPath><clipPath id="highcharts-ckj4bt1-2"><rect x="0" y="0" width="428" height="308" fill="none"></rect></clipPath></defs><rect fill="#fbfbfb" class="highcharts-background" x="0" y="0" width="485" height="415" rx="0" ry="0"></rect><rect fill="none" class="highcharts-plot-background" x="47" y="41" width="428" height="308"></rect><g class="highcharts-grid highcharts-xaxis-grid "><path fill="none" class="highcharts-grid-line" d="M 50.5 41 L 50.5 349" opacity="1"></path><path fill="none" class="highcharts-grid-line" d="M 135.5 41 L 135.5 349" opacity="1"></path><path fill="none" class="highcharts-grid-line" d="M 220.5 41 L 220.5 349" opacity="1"></path><path fill="none" class="highcharts-grid-line" d="M 304.5 41 L 304.5 349" opacity="1"></path><path fill="none" class="highcharts-grid-line" d="M 389.5 41 L 389.5 349" opacity="1"></path><path fill="none" class="highcharts-grid-line" d="M 474.5 41 L 474.5 349" opacity="1"></path></g><g class="highcharts-grid highcharts-yaxis-grid "><path fill="none" stroke="#e6e6e6" stroke-width="1" class="highcharts-grid-line" d="M 47 349.5 L 475 349.5" opacity="1"></path><path fill="none" stroke="#e6e6e6" stroke-width="1" class="highcharts-grid-line" d="M 47 311.5 L 475 311.5" opacity="1"></path><path fill="none" stroke="#e6e6e6" stroke-width="1" class="highcharts-grid-line" d="M 47 272.5 L 475 272.5" opacity="1"></path><path fill="none" stroke="#e6e6e6" stroke-width="1" class="highcharts-grid-line" d="M 47 234.5 L 475 234.5" opacity="1"></path><path fill="none" stroke="#e6e6e6" stroke-width="1" class="highcharts-grid-line" d="M 47 195.5 L 475 195.5" opacity="1"></path><path fill="none" stroke="#e6e6e6" stroke-width="1" class="highcharts-grid-line" d="M 47 157.5 L 475 157.5" opacity="1"></path><path fill="none" stroke="#e6e6e6" stroke-width="1" class="highcharts-grid-line" d="M 47 118.5 L 475 118.5" opacity="1"></path><path fill="none" stroke="#e6e6e6" stroke-width="1" class="highcharts-grid-line" d="M 47 80.5 L 475 80.5" opacity="1"></path><path fill="none" stroke="#e6e6e6" stroke-width="1" class="highcharts-grid-line" d="M 47 40.5 L 475 40.5" opacity="1"></path></g><rect fill="none" class="highcharts-plot-border" x="47" y="41" width="428" height="308"></rect><g class="highcharts-axis highcharts-xaxis "><path fill="none" class="highcharts-axis-line" stroke="#ccd6eb" stroke-width="1" d="M 47 349.5 L 475 349.5"></path></g><g class="highcharts-axis highcharts-yaxis "><path fill="none" class="highcharts-axis-line" d="M 47 41 L 47 349"></path></g><g class="highcharts-series-group"><g class="highcharts-series highcharts-series-0 highcharts-line-series highcharts-color-undefined " transform="translate(47,41) scale(1 1)" clip-path="url(#highcharts-ckj4bt1-2)"><path fill="none" d="M 4.2376237623762 96.25 L 173.74257425743 65.45000000000002 L 343.24752475248 26.94999999999999 L 360.19801980198 21.17500000000001 L 377.14851485149 19.442499999999995 L 394.09900990099 18.86500000000001 L 411.0495049505 16.555000000000007 L 428 17.32499999999999" class="highcharts-graph" stroke="#008AC3" stroke-width="2" stroke-linejoin="round" stroke-linecap="round"></path><path fill="none" d="M -5.7623762376238 96.25 L 4.2376237623762 96.25 L 173.74257425743 65.45000000000002 L 343.24752475248 26.94999999999999 L 360.19801980198 21.17500000000001 L 377.14851485149 19.442499999999995 L 394.09900990099 18.86500000000001 L 411.0495049505 16.555000000000007 L 428 17.32499999999999 L 438 17.32499999999999" stroke-linejoin="round" visibility="visible" stroke="rgba(192,192,192,0.0001)" stroke-width="22" class="highcharts-tracker"></path></g><g class="highcharts-markers highcharts-series-0 highcharts-line-series highcharts-color-undefined highcharts-tracker" transform="translate(47,41) scale(1 1)" clip-path="none"><path fill="#008AC3" d="M 8 96 A 4 4 0 1 1 7.999998000000167 95.99600000066667 Z" class="highcharts-point"></path><path fill="#008AC3" d="M 177 65 A 4 4 0 1 1 176.99999800000018 64.99600000066667 Z" class="highcharts-point"></path><path fill="#008AC3" d="M 347 27 A 4 4 0 1 1 346.9999980000002 26.996000000666665 Z" class="highcharts-point"></path><path fill="#008AC3" d="M 364 21 A 4 4 0 1 1 363.9999980000002 20.996000000666665 Z" class="highcharts-point"></path><path fill="#008AC3" d="M 381 19 A 4 4 0 1 1 380.9999980000002 18.996000000666665 Z" class="highcharts-point"></path><path fill="#008AC3" d="M 398 19 A 4 4 0 1 1 397.9999980000002 18.996000000666665 Z" class="highcharts-point"></path><path fill="#008AC3" d="M 415 17 A 4 4 0 1 1 414.9999980000002 16.996000000666665 Z" class="highcharts-point"></path><path fill="#008AC3" d="M 432 17 A 4 4 0 1 1 431.9999980000002 16.996000000666665 Z" class="highcharts-point"></path></g></g><text x="10" text-anchor="start" class="highcharts-title" style="color:#000000;font-size:14px;font-weight:bold;fill:#000000;" y="21"><tspan>Wohneigentumsquote in Prozent</tspan></text><g class="highcharts-data-labels highcharts-series-0 highcharts-line-series highcharts-color-undefined " transform="translate(47,41) scale(1 1)" opacity="1"><g class="highcharts-label highcharts-data-label highcharts-data-label-color-undefined " transform="translate(-5,73)"><text x="5" style="font-size:11px;font-weight:bold;color:#000000;text-outline:1px contrast;fill:#000000;" y="16"><tspan x="5" y="16" class="highcharts-text-outline" fill="#FFFFFF" stroke="#FFFFFF" stroke-width="2px" stroke-linejoin="round" style="">11</tspan><tspan x="5" y="16">11</tspan></text></g><g class="highcharts-label highcharts-data-label highcharts-data-label-color-undefined " transform="translate(169,55)"><text x="5" style="font-size:11px;font-weight:bold;color:#000000;text-outline:1px contrast;fill:#000000;" y="16"></text></g><g class="highcharts-label highcharts-data-label highcharts-data-label-color-undefined " transform="translate(338,17)"><text x="5" style="font-size:11px;font-weight:bold;color:#000000;text-outline:1px contrast;fill:#000000;" y="16"></text></g><g class="highcharts-label highcharts-data-label highcharts-data-label-color-undefined " transform="translate(355,11)"><text x="5" style="font-size:11px;font-weight:bold;color:#000000;text-outline:1px contrast;fill:#000000;" y="16"></text></g><g class="highcharts-label highcharts-data-label highcharts-data-label-color-undefined " transform="translate(372,9)"><text x="5" style="font-size:11px;font-weight:bold;color:#000000;text-outline:1px contrast;fill:#000000;" y="16"></text></g><g class="highcharts-label highcharts-data-label highcharts-data-label-color-undefined " transform="translate(389,9)"><text x="5" style="font-size:11px;font-weight:bold;color:#000000;text-outline:1px contrast;fill:#000000;" y="16"></text></g><g class="highcharts-label highcharts-data-label highcharts-data-label-color-undefined " transform="translate(406,7)"><text x="5" style="font-size:11px;font-weight:bold;color:#000000;text-outline:1px contrast;fill:#000000;" y="16"></text></g><g class="highcharts-label highcharts-data-label highcharts-data-label-color-undefined " transform="translate(411,17)"><text x="5" style="font-size:11px;font-weight:bold;color:#000000;text-outline:1px contrast;fill:#000000;" y="16"><tspan x="5" y="16" class="highcharts-text-outline" fill="#FFFFFF" stroke="#FFFFFF" stroke-width="2px" stroke-linejoin="round">15</tspan><tspan x="5" y="16">15</tspan></text></g></g><g class="highcharts-axis-labels highcharts-xaxis-labels "><text x="51.23762376237624" style="color:#000000;cursor:default;font-size:11px;fill:#000000;" text-anchor="middle" transform="translate(0,0)" y="368" opacity="1"><tspan>1990</tspan></text><text x="135.990099009901" style="color:#000000;cursor:default;font-size:11px;fill:#000000;" text-anchor="middle" transform="translate(0,0)" y="368" opacity="1"><tspan>1995</tspan></text><text x="220.74257425742576" style="color:#000000;cursor:default;font-size:11px;fill:#000000;" text-anchor="middle" transform="translate(0,0)" y="368" opacity="1"><tspan>2000</tspan></text><text x="305.4950495049505" style="color:#000000;cursor:default;font-size:11px;fill:#000000;" text-anchor="middle" transform="translate(0,0)" y="368" opacity="1"><tspan>2005</tspan></text><text x="390.2475247524753" style="color:#000000;cursor:default;font-size:11px;fill:#000000;" text-anchor="middle" transform="translate(0,0)" y="368" opacity="1"><tspan>2010</tspan></text><text x="462.78125" style="color:#000000;cursor:default;font-size:11px;fill:#000000;" text-anchor="middle" transform="translate(0,0)" y="368" opacity="1"><tspan>2015</tspan></text></g><g class="highcharts-axis-labels highcharts-yaxis-labels "><text x="32" style="color:#000000;cursor:default;font-size:11px;fill:#000000;" text-anchor="end" transform="translate(0,0)" y="354" opacity="1"><tspan>0%</tspan></text><text x="32" style="color:#000000;cursor:default;font-size:11px;fill:#000000;" text-anchor="end" transform="translate(0,0)" y="315" opacity="1"><tspan>2%</tspan></text><text x="32" style="color:#000000;cursor:default;font-size:11px;fill:#000000;" text-anchor="end" transform="translate(0,0)" y="277" opacity="1"><tspan>4%</tspan></text><text x="32" style="color:#000000;cursor:default;font-size:11px;fill:#000000;" text-anchor="end" transform="translate(0,0)" y="238" opacity="1"><tspan>6%</tspan></text><text x="32" style="color:#000000;cursor:default;font-size:11px;fill:#000000;" text-anchor="end" transform="translate(0,0)" y="200" opacity="1"><tspan>8%</tspan></text><text x="32" style="color:#000000;cursor:default;font-size:11px;fill:#000000;" text-anchor="end" transform="translate(0,0)" y="161" opacity="1"><tspan>10%</tspan></text><text x="32" style="color:#000000;cursor:default;font-size:11px;fill:#000000;" text-anchor="end" transform="translate(0,0)" y="123" opacity="1"><tspan>12%</tspan></text><text x="32" style="color:#000000;cursor:default;font-size:11px;fill:#000000;" text-anchor="end" transform="translate(0,0)" y="84" opacity="1"><tspan>14%</tspan></text><text x="32" style="color:#000000;cursor:default;font-size:11px;fill:#000000;" text-anchor="end" transform="translate(0,0)" y="46" opacity="1"><tspan>16%</tspan></text></g><text x="10" class="highcharts-credits" text-anchor="start" style="cursor:default;color:#000000;font-size:10px;fill:#000000;" y="400"><tspan>Quelle: Statistisches Amt Basel-Stadt, kantonale Gebäude- und Wohnungsstatistik</tspan></text></svg>

<svg class="highcharts-root" xmlns="http://www.w3.org/2000/svg" viewBox="0 0 485 415" font-family="Arial" font-size="12">
    <defs>
        <clipPath id="a">
            <path fill="none" d="M0 0h428v308H0z"/>
        </clipPath>
    </defs>
    <rect fill="#fbfbfb" class="highcharts-background" width="485" height="415" rx="0" ry="0"/>
    <path fill="none" class="highcharts-plot-background" d="M47 41h428v308H47z"/>
    <g class="highcharts-grid highcharts-xaxis-grid">
        <path fill="none" class="highcharts-grid-line" d="M50.5 41v308m85-308v308m85-308v308m84-308v308m85-308v308m85-308v308"/>
    </g>
    <g class="highcharts-grid highcharts-yaxis-grid">
        <path fill="none" stroke="#e6e6e6" class="highcharts-grid-line" d="M47 349.5h428m-428-38h428m-428-39h428m-428-38h428m-428-39h428m-428-38h428m-428-39h428m-428-38h428m-428-40h428"/>
    </g>
    <path fill="none" class="highcharts-plot-border" d="M47 41h428v308H47z"/>
    <g class="highcharts-axis highcharts-xaxis">
        <path fill="none" class="highcharts-axis-line" stroke="#ccd6eb" d="M47 349.5h428"/>
    </g>
    <g class="highcharts-axis highcharts-yaxis">
        <path fill="none" class="highcharts-axis-line" d="M47 41v308"/>
    </g>
    <g class="highcharts-series-group">
        <g class="highcharts-series highcharts-series-0 highcharts-line-series highcharts-color-undefined" transform="translate(47 41)" clip-path="url(#a)">
            <path fill="none" d="M4.238 96.25l169.505-30.8 169.505-38.5 16.95-5.775 16.95-1.733 16.951-.577 16.95-2.31 16.951.77" class="highcharts-graph" stroke="#008AC3" stroke-width="2" stroke-linejoin="round" stroke-linecap="round"/>
            <path fill="none" d="M-5.762 96.25h10l169.505-30.8 169.505-38.5 16.95-5.775 16.95-1.733 16.951-.577 16.95-2.31 16.951.77h10" stroke-linejoin="round" stroke="rgba(192,192,192,0.0001)" stroke-width="22" class="highcharts-tracker"/>
        </g>
        <g class="highcharts-markers highcharts-series-0 highcharts-line-series highcharts-color-undefined highcharts-tracker">
            <path fill="#008AC3" d="M55 137a4 4 0 1 1 0-.004zm169-31a4 4 0 1 1 0-.004zm170-38a4 4 0 1 1 0-.004zm17-6a4 4 0 1 1 0-.004zm17-2a4 4 0 1 1 0-.004zm17 0a4 4 0 1 1 0-.004zm17-2a4 4 0 1 1 0-.004zm17 0a4 4 0 1 1 0-.004z" class="highcharts-point"/>
        </g>
    </g>
    <text x="10" class="highcharts-title" y="21" color="#000" font-size="14" font-weight="700">
        <tspan>Wohneigentumsquote in Prozent</tspan>
    </text>
    <g class="highcharts-data-labels highcharts-series-0 highcharts-line-series highcharts-color-undefined">
        <text x="5" style="text-outline:1px contrast" y="16" font-size="11" font-weight="700" color="#000" transform="translate(42 114)" class="highcharts-label highcharts-data-label highcharts-data-label-color-undefined">
            <tspan x="5" y="16" class="highcharts-text-outline" fill="#FFF" stroke="#FFF" stroke-width="2" stroke-linejoin="round">11</tspan><tspan x="5" y="16">11</tspan>
        </text>
        <text x="5" style="text-outline:1px contrast" y="16" font-size="11" font-weight="700" color="#000" transform="translate(458 58)" class="highcharts-label highcharts-data-label highcharts-data-label-color-undefined">
            <tspan x="5" y="16" class="highcharts-text-outline" fill="#FFF" stroke="#FFF" stroke-width="2" stroke-linejoin="round">15</tspan><tspan x="5" y="16">15</tspan>
        </text>
    </g>
    <g class="highcharts-axis-labels highcharts-xaxis-labels" text-anchor="middle" color="#000" cursor="default" font-size="11">
        <text x="51.238" y="368">
            <tspan>1990</tspan>
        </text>
        <text x="135.99" y="368">
            <tspan>1995</tspan>
        </text>
        <text x="220.743" y="368">
            <tspan>2000</tspan>
        </text>
        <text x="305.495" y="368">
            <tspan>2005</tspan>
        </text>
        <text x="390.248" y="368">
            <tspan>2010</tspan>
        </text>
        <text x="462.781" y="368">
            <tspan>2015</tspan>
        </text>
    </g>
    <g class="highcharts-axis-labels highcharts-yaxis-labels" text-anchor="end" color="#000" cursor="default" font-size="11">
        <text x="32" y="354">
            <tspan>0%</tspan>
        </text>
        <text x="32" y="315">
            <tspan>2%</tspan>
        </text>
        <text x="32" y="277">
            <tspan>4%</tspan>
        </text>
        <text x="32" y="238">
            <tspan>6%</tspan>
        </text>
        <text x="32" y="200">
            <tspan>8%</tspan>
        </text>
        <text x="32" y="161">
            <tspan>10%</tspan>
        </text>
        <text x="32" y="123">
            <tspan>12%</tspan>
        </text>
        <text x="32" y="84">
            <tspan>14%</tspan>
        </text>
        <text x="32" y="46">
            <tspan>16%</tspan>
        </text>
    </g>
    <text x="10" class="highcharts-credits" y="400" cursor="default" color="#000" font-size="10">
        <tspan>Quelle: Statistisches Amt Basel-Stadt, kantonale Gebäude- und Wohnungsstatistik</tspan>
    </text>
</svg>
